resources/images/ams_rfid_0.svg

<svg width="30" height="30" xmlns="http://www.w3.org/2000/svg" fill="none">
 <defs>
  <clipPath id="clip0_7112_29362">
   <rect id="svg_1" fill="white" height="30" width="30"/>
  </clipPath>
 </defs>
 <g>
  <title>Layer 1</title>
  <g id="svg_2" clip-path="url(#clip0_7112_29362)">
   <path id="svg_3" stroke="black" d="m31.1539,-1.15234l-32.30771,0l0,32.30764l32.30771,0l0,-32.30764z"/>
   <path id="svg_4" fill="#6B6B6B" d="m22.2754,10.1387c0.9615,1.439 1.4747,3.1307 1.4747,4.8613l-2.49,0c-0.219,0 -0.3396,0.2544 -0.201,0.4239l3.5682,4.3626c0.1039,0.127 0.2981,0.127 0.4019,0l3.5682,-4.3626c0.1387,-0.1695 0.0181,-0.4239 -0.2009,-0.4239l-2.3965,0c0,-0.5037 -0.0346,-1.0048 -0.1027,-1.5c-0.2263,-1.6434 -0.8223,-3.2212 -1.7511,-4.61127c-1.2087,-1.80894 -2.9267,-3.21884 -4.9367,-4.0514c-2.01,-0.83256 -4.2217,-1.0504 -6.3555,-0.62596c-2.1338,0.42443 -4.09379,1.47208 -5.63217,3.01046c-1.53838,1.53838 -2.58603,3.49837 -3.01046,5.63217c-0.42444,2.1338 -0.2066,4.3455 0.62596,6.3555c0.83256,2.01 2.24246,3.728 4.0514,4.9367c1.39007,0.9288 2.96787,1.5248 4.61127,1.7511c0.4952,0.0681 0.9963,0.1027 1.5,0.1027l0,-0.7499l0,-0.7501l0,-0.7499c-1.7306,0 -3.4223,-0.5132 -4.8613,-1.4747c-1.43891,-0.9615 -2.56043,-2.328 -3.2227,-3.9269c-0.66227,-1.5989 -0.83555,-3.3582 -0.49793,-5.0555c0.33762,-1.6974 1.17099,-3.2565 2.3947,-4.48023c1.22373,-1.22371 2.78283,-2.05708 4.48023,-2.3947c1.6973,-0.33762 3.4566,-0.16434 5.0555,0.49793c1.5989,0.66227 2.9654,1.78379 3.9269,3.2227z" clip-rule="evenodd" fill-rule="evenodd"/>
  </g>
 </g>
</svg>

<svg width="30" height="30" viewBox="0 0 30 30" fill="none" xmlns="http://www.w3.org/2000/svg">
<g clip-path="url(#clip0_10670_19458)">
<mask id="mask0_10670_19458" style="mask-type:luminance" maskUnits="userSpaceOnUse" x="0" y="0" width="30" height="30">
<path d="M30 0H0V30H30V0Z" fill="white"/>
</mask>
<g mask="url(#mask0_10670_19458)">
<path d="M31.1534 -1.15234H-1.1543V31.1553H31.1534V-1.15234Z" stroke="black"/>
<path fill-rule="evenodd" clip-rule="evenodd" d="M22.2754 10.1387C23.2369 11.5777 23.7501 13.2694 23.7501 15H21.2601C21.0411 15 20.9205 15.2544 21.0591 15.4239L24.6273 19.7865C24.7312 19.9135 24.9254 19.9135 25.0292 19.7865L28.5974 15.4239C28.7361 15.2544 28.6155 15 28.3965 15H26C26 14.4963 25.9654 13.9952 25.8973 13.5C25.671 11.8566 25.075 10.2788 24.1462 8.88873C22.9375 7.07979 21.2195 5.66989 19.2095 4.83733C17.1995 4.00477 14.9878 3.78693 12.854 4.21137C10.7202 4.6358 8.76021 5.68345 7.22183 7.22183C5.68345 8.76021 4.6358 10.7202 4.21137 12.854C3.78693 14.9878 4.00477 17.1995 4.83733 19.2095C5.66989 21.2195 7.07979 22.9375 8.88873 24.1462C10.2788 25.075 11.8566 25.671 13.5 25.8973C13.9952 25.9654 14.4963 26 15 26V25.2501V24.5V23.7501C13.2694 23.7501 11.5777 23.2369 10.1387 22.2754C8.69979 21.3139 7.57827 19.9474 6.916 18.3485C6.25373 16.7496 6.08045 14.9903 6.41807 13.293C6.75569 11.5956 7.58906 10.0365 8.81277 8.81277C10.0365 7.58906 11.5956 6.75569 13.293 6.41807C14.9903 6.08045 16.7496 6.25373 18.3485 6.916C19.9474 7.57827 21.3139 8.69979 22.2754 10.1387Z" fill="#6B6B6B"/>
</g>
</g>
<defs>
<clipPath id="clip0_10670_19458">
<rect width="30" height="30" fill="white"/>
</clipPath>
</defs>
</svg>
